X: 2
T:SLYLDMN1- An the Kirk wad let me be (Wully Honey)
S:Mitchell's Highland Fair, 1731 (An Old Man Taught Wisdom, 1735)
Q:1/4=120
L:1/4
M:9/4
K:Dm
C|F3/2G/FAcdcAF|G3/2A/FGAcd2f|F3/2G/FfedcAF|GABAGFD2::c|\
fcffgfedc|dcdf3/2g/ag2f|fcffgfedc|(d/e/f)dcAFA2:|]
